X:5005
T:Eleanor Plunkett
R:Air
C:Turlough O'Carolan (1670-1738)
O:Ireland
Z:Paul Hardy's Session Tunebook 2022 (see www.paulhardy.net). Creative Commons cc by-nc-sa licenced.
M:3/4
L:1/8
Q:1/4=110
K:Em
GA|"Em"B2 B2 AG|"G"G2 G2 ag|"Em"e2 e2 ed|"G"B2 B2 AG|"Em"E2 "Am"A2AB|"D"A4 ga|"Em"b2ag ed|e4ef|
"G"g2g2b2|"D"a2ba gf|"Em"g2ag fe|"G"d2B2d2|"Em"e2 g2 G2|"G"B2 B2 AG|"Em"E2 "Am"A2 AB|1"D"A4:|2"G"G4|]

